X:2
T:The Days Of Wine & Roses
C:Henry Mancini
L:1/4
M:C
I:linebreak $
K:F
C S||"F" A4 |"Eb7" z G A c |"D7" d c c2 | z2 c A |"Gm" A D D2 |$ z2 c A |"BbmM" A _D _D2 |
"Eb7" z2 A G |"Am" G C D E Ox/||$"Dm" G F A d |"Gm" c2 z B |"C7" c B A G |$
"Eø" A2"A7" z E |"Dm" G F"G7" E D |"Gm" G4 |"C7" z2 z "_D.S. al Coda" C ||$Ox/"Dm" F G A c |
"Bø" e4 |"Bb7" z2 d2 |"Am" c A"Dm" G F |"Gm" A A"C7" z D |"F" F4 |]

